X:35
T:St. Anne's Reel
M:4/4
L:1/8
Q:1/4=222
K:D
de|:fedf edcB|A2FA DAFA|B2GB EBGB|A2FA DAFA|
fedf edcB|A2FA DAFD|B2ed cABc|dedc d4:|
|:f3e fdef|gagf g2gf|edcB ABce|baa^g a2ag|
f2fg fdef|gagf g2gf|edcB ABcd|eddc d4:|
